X: 27584
T: Monster Cafe
R: polka
M: 2/4
K: Gdorian
|:dc BA|^FD A/2G/2A/2B/2|cG B/2G/2B/2c/2|fe dA|
dc BA|^FD A/2G/2A/2B/2|c>B AG|cB AG:|
K: Gmin
|:d2 d2|dc- cd|fd df|d3 c/2d/2|
e>d cB|A3 c|1 AA GA|A/2F/2G/2A/2 B/2G/2A/2B/2:|2 B/2c/2B/2A/2 GA|G4||

